src/assets/images/svg/chuhaiqu.svg

<svg width="48" height="60" viewBox="0 0 189 235" fill="none" xmlns="http://www.w3.org/2000/svg"
  class="text-white flex-shrink-0">
  <path fill-rule="evenodd" clip-rule="evenodd"
    d="M37.0093 189.564L99.0754 170.09C99.3018 170.018 99.5103 169.914 99.7027 169.762C102.37 167.647 123.06 150.066 134.674 104.969C146.548 58.8672 145.387 -9.46913 141.175 1.63495C134.838 14.9017 124.028 17.5724 117.029 17.5724C101.249 17.5724 88.6257 8.34423 84.6797 4.88953C86.9823 10.0138 91.2691 12.8273 94.5331 14.9695C97.0001 16.5887 98.8828 17.8244 98.8828 19.3845C98.8828 22.4605 92.006 19.3845 88.6258 17.5724C90.2035 20.2914 101.249 27.5398 117.818 27.5398C131.856 27.5398 137.425 16.7487 139.804 8.459C129.974 65.7793 94.3622 143.977 34.7736 183.61C30.5156 186.646 32.1321 191.545 37.0093 189.564ZM1.68402 220.358C6.53693 217.994 10.8176 216.17 13.5754 215.03C133.967 165.276 186.848 168.778 187.625 192.005C187.632 192.299 187.575 192.686 187.482 192.967C186.49 195.802 180.764 211.795 173.615 223.948L173.586 223.997C172.756 225.38 171.09 225.551 170.047 224.361L169.906 224.199C165.896 219.54 159.848 215.03 149.853 215.03C142.493 215.03 137.024 219.354 131.197 223.96C124.554 229.213 117.445 234.833 106.536 234.833C94.7513 234.833 81.5293 231.063 68.267 227.282C58.4821 224.492 48.6754 221.696 39.408 220.403C32.9402 219.502 17.2288 219.112 3.029 224.011C0.604159 224.913 -0.205738 221.278 1.68402 220.358ZM183.528 171.933C168.771 161.623 146.831 162.058 128.593 165.7L123.783 166.66C121.38 167.14 120.175 167.381 120.166 167.382C117.473 167.882 116.242 165.226 118.168 163.067C118.175 163.058 119.261 161.871 121.43 159.5L121.431 159.498L124.399 156.253C150.918 127.258 153.043 91.038 148.208 67.1472C147.975 63.13 151.781 63.1426 152.08 63.5104 152.68 64.2497 183.224 101.9 191.087 139.885 187.264 170.179L187.246 170.319C186.993 172.193 185.237 173.105 183.787 165.9897 147.857 65.4109 147.854 65.3946C147.346 62.7207 150.101 61.1268 151.769 72.115L183.528 171.933Z"
    fill="currentColor"></path>
</svg>

<svg width="48" height="60" viewBox="0 0 189 235" fill="none" xmlns="http://www.w3.org/2000/svg"
  class="prefix__text-white prefix__flex-shrink-0">
  <path fill-rule="evenodd" clip-rule="evenodd"
    d="M37.01 189.564l62.065-19.474c.227-.072.435-.176.628-.328 2.667-2.115 23.357-19.696 34.971-64.793 11.874-46.102 10.713-114.438 6.501-103.334-6.337 13.267-17.147 15.937-24.146 15.937-15.78 0-28.403-9.228-32.35-12.682 2.303 5.124 6.59 7.937 9.854 10.08 2.467 1.619 4.35 2.854 4.35 4.414 0 3.076-6.877 0-10.257-1.812 1.578 2.72 12.623 9.968 29.192 9.968 14.038 0 19.607-10.791 21.986-19.081-9.83 57.32-45.442 135.518-105.03 175.151-4.258 3.036-2.642 7.935 2.235 5.954zM1.683 220.358a213.26 213.26 0 0111.891-5.328c120.392-49.754 173.273-46.252 174.05-23.025.007.294-.05.681-.143.962-.992 2.835-6.718 18.828-13.867 30.981l-.029.049c-.83 1.383-2.496 1.554-3.539.364l-.141-.162c-4.01-4.659-10.058-9.169-20.053-9.169-7.36 0-12.829 4.324-18.656 8.93-6.643 5.253-13.752 10.873-24.661 10.873-11.785 0-25.007-3.77-38.269-7.551-9.785-2.79-19.592-5.586-28.859-6.879-6.468-.901-22.18-1.291-36.379 3.608-2.425.902-3.235-2.733-1.345-3.653zm181.844-48.425c-14.757-10.31-36.697-9.875-54.935-6.233l-4.81.96-3.617.722c-2.693.5-3.924-2.156-1.998-4.315l3.262-3.567.001-.002 2.968-3.245c26.519-28.995 28.644-65.215 23.809-89.106-.233-4.017 3.573-4.004 3.872-3.637.6.74 31.144 38.39 39.007 76.375-3.823 30.294 NaN NaN NaN NaNlNaN NaNcNaN NaN NaN NaN NaN NaN NaN NaN NaN NaN NaN NaN NaN NaN NaN NaN NaN NaNlNaN NaNz"
    fill="currentColor" />
</svg>
